packages/tokens/icons/samePage/size16Px.svg

<svg viewBox="0 0 16 16" fill="none" xmlns="http://www.w3.org/2000/svg" width="1em" height="1em"><path d="M6.5 6C6.5 5.17157 7.17157 4.5 8 4.5L13 4.5C13.8284 4.5 14.5 5.17157 14.5 6L14.5 13C14.5 13.8284 13.8284 14.5 13 14.5L8 14.5C7.17157 14.5 6.5 13.8284 6.5 13L6.5 6Z" stroke="currentColor"/><path fill-rule="evenodd" clip-rule="evenodd" d="M8 7.5C8 7.22386 8.22386 7 8.5 7L12.5 7C12.7761 7 13 7.22386 13 7.5C13 7.77614 12.7761 8 12.5 8H8.5C8.22386 8 8 7.77614 8 7.5ZM8 9.5C8 9.22386 8.22386 9 8.5 9H12.5C12.7761 9 13 9.22386 13 9.5C13 9.77614 12.7761 10 12.5 10H8.5C8.22386 10 8 9.77614 8 9.5ZM8.5 11C8.22386 11 8 11.2239 8 11.5C8 11.7761 8.22386 12 8.5 12H12.5C12.7761 12 13 11.7761 13 11.5C13 11.2239 12.7761 11 12.5 11H8.5Z" fill="currentColor"/><path d="M9.5 4.5V3.5C9.5 2.94772 9.05228 2.5 8.5 2.5L2.5 2.5C1.94772 2.5 1.5 2.94772 1.5 3.5L1.5 11.5C1.5 12.0523 1.94772 12.5 2.5 12.5H6.5" stroke="currentColor"/><path fill-rule="evenodd" clip-rule="evenodd" d="M3 5.5C3 5.22386 3.22386 5 3.5 5L6.5 5C6.77614 5 7 5.22386 7 5.5C7 5.77614 6.77614 6 6.5 6L3.5 6C3.22386 6 3 5.77614 3 5.5ZM3 7.5C3 7.22386 3.22386 7 3.5 7H6.5C6.77614 7 7 7.22386 7 7.5C7 7.77614 6.77614 8 6.5 8H3.5C3.22386 8 3 7.77614 3 7.5ZM3.5 9C3.22386 9 3 9.22386 3 9.5C3 9.77614 3.22386 10 3.5 10H6.5C6.77614 10 7 9.77614 7 9.5C7 9.22386 6.77614 9 6.5 9H3.5Z" fill="currentColor"/></svg>

<svg xmlns="http://www.w3.org/2000/svg" fill="none" viewBox="0 0 16 16" width="1em" height="1em"><path stroke="currentColor" d="M6.5 6A1.5 1.5 0 0 1 8 4.5h5A1.5 1.5 0 0 1 14.5 6v7a1.5 1.5 0 0 1-1.5 1.5H8A1.5 1.5 0 0 1 6.5 13V6Z"/><path fill="currentColor" fill-rule="evenodd" d="M8 7.5a.5.5 0 0 1 .5-.5h4a.5.5 0 0 1 0 1h-4a.5.5 0 0 1-.5-.5Zm0 2a.5.5 0 0 1 .5-.5h4a.5.5 0 0 1 0 1h-4a.5.5 0 0 1-.5-.5Zm.5 1.5a.5.5 0 0 0 0 1h4a.5.5 0 0 0 0-1h-4Z" clip-rule="evenodd"/><path stroke="currentColor" d="M9.5 4.5v-1a1 1 0 0 0-1-1h-6a1 1 0 0 0-1 1v8a1 1 0 0 0 1 1h4"/><path fill="currentColor" fill-rule="evenodd" d="M3 5.5a.5.5 0 0 1 .5-.5h3a.5.5 0 0 1 0 1h-3a.5.5 0 0 1-.5-.5Zm0 2a.5.5 0 0 1 .5-.5h3a.5.5 0 0 1 0 1h-3a.5.5 0 0 1-.5-.5ZM3.5 9a.5.5 0 0 0 0 1h3a.5.5 0 0 0 0-1h-3Z" clip-rule="evenodd"/></svg>
